packages/kaspersky-hexa-ui-icons/src/iconsSVGs/24/KasperskyClub.svg

<svg width="24" height="24" viewBox="0 0 24 24" fill="none" xmlns="http://www.w3.org/2000/svg">
<path d="M8.39473 12C8.39473 9.78511 10.1249 8.10397 12.1192 8.10397C13.402 8.10397 14.5756 8.79955 15.2497 9.88534C15.3069 9.9776 15.4063 10.0368 15.5149 10.0368H18.5786C18.7768 10.0368 18.9206 9.84771 18.8575 9.65975C17.9089 6.83195 15.2877 4.75 12.1192 4.75C8.12471 4.75 5 8.0591 5 12C5 15.9409 8.12471 19.25 12.1192 19.25C15.3268 19.25 17.9735 17.1163 18.8919 14.2352C18.9515 14.048 18.808 13.862 18.6116 13.862H15.5756C15.4638 13.862 15.3621 13.9247 15.3058 14.0213C14.6421 15.1604 13.4385 15.896 12.1192 15.896C10.1249 15.896 8.39473 14.2149 8.39473 12Z" fill="black"/>
</svg>

<svg xmlns="http://www.w3.org/2000/svg" width="24" height="24" fill="none" viewBox="0 0 24 24"><path fill="#000" d="M8.3947 12c0-2.2149 1.7302-3.896 3.7245-3.896 1.2828 0 2.4564.6956 3.1305 1.7813.0572.0923.1566.1515.2652.1515h3.0637c.1982 0 .342-.189.2789-.377-.9486-2.8279-3.5698-4.9098-6.7383-4.9098C8.1247 4.75 5 8.0591 5 12s3.1247 7.25 7.1192 7.25c3.2076 0 5.8543-2.1337 6.7727-5.0148.0596-.1872-.0839-.3732-.2803-.3732h-3.036c-.1118 0-.2135.0627-.2698.1593-.6637 1.1391-1.8673 1.8747-3.1866 1.8747-1.9943 0-3.7245-1.6811-3.7245-3.896"/></svg>
